X:1
T:John Ryan's
L:1/8
Q:1/4=110
M:2/4
K:D
x4 |x4 | x4 | x4 |
x4 | x4 | x4 | x4 ||
x4 | x4 | x4 | x4 |
x4 | x4 | x4 | x4 |:
x4 | x4 | x4 |x4 |
x4 | x4 | x4 |1 x4 :|2 x4 |:
x4 | x4 | x4 | x4 |
x4 | x4 | x4 |1 x4 :|2 x4 |:
dA Ac/2d/2 |ed cB/2c/2 | dA FA | dc/2d/2 ec |
dA Ac/2d/2 | ed cB/2c/2 | dA AG |1 F2 F2 :|2 F2 F2 |:
x4 | x4 | x4 |x4 |
x4 | x4 | x4 |1 x4 :|2 x4 |:
dA Ac/2d/2 | ed cB/2c/2 | dA FA | dc/2d/2 ec |
dA Ac/2d/2 |ed cB/2c/2 | dA AG |1 A2 A2 :|2 A2 A2 |]

